components/Common/Svg/svgs/businessBeforeTechnology.svg

<svg
  width="40"
  height="40"
  viewBox="0 0 40 40"
  fill="none"
  xmlns="http://www.w3.org/2000/svg"
>
  <path
    d="M33.75 11.25H6.25C5.55964 11.25 5 11.8096 5 12.5V32.5C5 33.1904 5.55964 33.75 6.25 33.75H33.75C34.4404 33.75 35 33.1904 35 32.5V12.5C35 11.8096 34.4404 11.25 33.75 11.25Z"
    stroke="#161616"
    stroke-width="2"
    stroke-linecap="round"
    stroke-linejoin="round"
  ></path>
  <path
    d="M13.75 11.25C13.75 9.5924 14.4085 8.00269 15.5806 6.83058C16.7527 5.65848 18.3424 5 20 5C21.6576 5 23.2473 5.65848 24.4194 6.83058C25.5915 8.00269 26.25 9.5924 26.25 11.25"
    stroke="#161616"
    stroke-width="2"
    stroke-linecap="round"
    stroke-linejoin="round"
  ></path>
  <path
    d="M5 17.5H35"
    stroke="#161616"
    stroke-width="2"
    stroke-linecap="round"
    stroke-linejoin="round"
  ></path>
  <path
    d="M29.375 37.3438C33.776 37.3438 37.3438 33.776 37.3438 29.375C37.3438 24.974 33.776 21.4062 29.375 21.4062C24.974 21.4062 21.4062 24.974 21.4062 29.375C21.4062 33.776 24.974 37.3438 29.375 37.3438Z"
    fill="#FFF281"
    stroke="#161616"
    stroke-width="2"
    stroke-linecap="round"
    stroke-linejoin="round"
  ></path>
  <path
    d="M27.5 32.5H30.3125C30.7269 32.5 31.1243 32.3354 31.4174 32.0424C31.7104 31.7493 31.875 31.3519 31.875 30.9375C31.875 30.5231 31.7104 30.1257 31.4174 29.8326C31.1243 29.5396 30.7269 29.375 30.3125 29.375H28.4375C28.0231 29.375 27.6257 29.2104 27.3326 28.9174C27.0396 28.6243 26.875 28.2269 26.875 27.8125C26.875 27.3981 27.0396 27.0007 27.3326 26.7076C27.6257 26.4146 28.0231 26.25 28.4375 26.25H31.25"
    stroke="#161616"
    stroke-width="1.5"
    stroke-linecap="round"
    stroke-linejoin="round"
  ></path>
  <path
    d="M29.375 24.7266V26.0547"
    stroke="#161616"
    stroke-width="1.5"
    stroke-linecap="round"
    stroke-linejoin="round"
  ></path>
  <path
    d="M29.375 32.6953V34.0234"
    stroke="#161616"
    stroke-width="1.5"
    stroke-linecap="round"
    stroke-linejoin="round"
  ></path>
</svg>

<svg width="40" height="40" viewBox="0 0 40 40" fill="none" xmlns="http://www.w3.org/2000/svg"><path d="M33.75 11.25H6.25c-.69 0-1.25.56-1.25 1.25v20c0 .69.56 1.25 1.25 1.25h27.5c.69 0 1.25-.56 1.25-1.25v-20c0-.69-.56-1.25-1.25-1.25ZM13.75 11.25a6.25 6.25 0 0 1 12.5 0M5 17.5h30" stroke="#161616" stroke-width="2" stroke-linecap="round" stroke-linejoin="round"/><path d="M29.375 37.344a7.969 7.969 0 1 0 0-15.938 7.969 7.969 0 0 0 0 15.938Z" fill="#FFF281" stroke="#161616" stroke-width="2" stroke-linecap="round" stroke-linejoin="round"/><path d="M27.5 32.5h2.813a1.563 1.563 0 0 0 0-3.125h-1.875a1.563 1.563 0 0 1 0-3.125h2.812M29.375 24.727v1.328M29.375 32.695v1.328" stroke="#161616" stroke-width="1.5" stroke-linecap="round" stroke-linejoin="round"/></svg>
